X: 9695
T: Death & Dr. Hornbrook
R: jig
M: 6/8
K: Dmajor
B|:AFA d2A|B2A d2B|AFA d2A|Bce cdf|
dfa d2A|B2A d2e|fed efg|1 fdd d2A:|2 fdd d2g||
|:fed afd|BAB A2B|AFA dAF|Bee efg|
[1fed afd|BAB A2g|fed efg|fdd d2g:|
[2dfd efe|faf gag|faf fed|dBA A2||

